X:1
T:The Poor Man's Family
M:4/4
L:1/4
K:C
 C| D D ED/2-E/2| G A dd/2-c/2| AG/2-E/2 D D| C3| C| D D ED/2-E/2|\
 G A d d/2c/2| AG/2-E/2 D C| D3| G| A3/2 G/2 A c| d3/2 e/2 dc/2-G/2|\
 AA/2-G/2 D D| C4| D D E D/2E/2| G/2G/2 A/2A/2 d d/2c/2| AG/2-E/2 D C|\
 D3||

